X:23
T:L'amor de la bic\`ota
R:misc
H:See also #24
O:Auvergne, France
Z:id:hn-misc-23
M:2/4
L:1/8
K:D
EF/G/ AA | F/G/A/B/ A2 | EE/F/ G/E/F/G/ | A/D/E/D/ CA, |
EF/G/ AA | F/G/A/B/ A2 | G/A/G/E/ F/G/A/D/ | C/D/E/F/ D2 ||
|: E/F/G/E/ F/G/A/D/ | CE/D/ CA, |
E/F/G/E/ F/G/A/D/ |1 C/D/E/C/ D2 :|2 C/D/E/F/ DA, ||

